Numix/64/apps/goa-account-yahoo.svg

<?xml version="1.0" encoding="UTF-8" standalone="yes"?>
<svg xmlns="http://www.w3.org/2000/svg" xmlns:xlink="http://www.w3.org/1999/xlink" width="64px" height="64px" viewBox="0 0 48 48" version="1.1">
  <g id="surface1">
    <path style=" stroke:none;fill-rule:nonzero;fill:rgb(53.333333%,12.156863%,63.529412%);fill-opacity:1;" d="M 35.246094 18.058594 C 34.683594 18.113281 32.351562 18.632812 31.570312 18.800781 C 30.730469 19.027344 23.058594 24.953125 22.554688 26.40625 C 22.441406 26.910156 22.386719 27.683594 22.386719 28.414062 L 22.332031 29.589844 C 22.332031 30.429688 22.5625 31.78125 22.675781 32.507812 C 23.179688 32.621094 26.828125 32.523438 27.5 32.636719 L 27.417969 34.140625 C 26.761719 34.09375 22.128906 34.105469 19.480469 34.105469 C 18.136719 34.105469 13.816406 34.253906 12.488281 34.210938 L 12.738281 32.78125 C 13.46875 32.722656 16.480469 32.910156 17.144531 32.210938 C 17.472656 31.863281 17.367188 31.492188 17.367188 29.476562 L 17.367188 28.527344 C 17.367188 28.078125 17.367188 27.238281 17.253906 26.453125 C 16.976562 25.613281 10.21875 17.179688 8.484375 15.835938 C 7.980469 15.667969 4.824219 15.351562 4.039062 15.183594 L 4 13.894531 C 4.390625 13.699219 7.902344 13.941406 11.308594 13.816406 C 13.550781 13.734375 18.660156 13.816406 19.289062 13.890625 L 19.128906 15.027344 C 18.457031 15.195312 15.222656 15.257812 14.382812 15.480469 C 16.566406 18.726562 20.015625 22.910156 21.136719 24.53125 C 21.753906 23.636719 27.164062 19.914062 27.332031 18.625 C 26.492188 18.457031 23.710938 18.058594 23.265625 18.058594 L 23 16.589844 C 23.761719 16.472656 27.769531 16.589844 29.761719 16.589844 C 31.480469 16.589844 35.15625 16.589844 36.199219 16.675781 L 35.246094 18.058594 "/>
    <path style=" stroke:none;fill-rule:nonzero;fill:rgb(53.333333%,12.156863%,63.529412%);fill-opacity:1;" d="M 38.90625 33.046875 L 37.609375 32.9375 L 37.59375 30.121094 L 39.238281 30.328125 L 40.714844 30.394531 L 40.304688 33.152344 L 38.910156 33.046875 M 40.582031 28.078125 L 38.15625 27.84375 C 38.410156 26.617188 38.191406 17.207031 38.171875 16.203125 L 38.046875 14.226562 C 38.722656 14.359375 38.621094 14.289062 41.46875 14.585938 C 43.203125 14.769531 43.429688 14.847656 44 14.871094 L 43.253906 17.214844 C 42.621094 19.089844 40.777344 27.449219 40.582031 28.078125 Z M 40.582031 28.078125 "/>
  </g>
</svg>

<svg xmlns="http://www.w3.org/2000/svg" width="64" height="64" viewBox="0 0 48 48">
 <g>
  <path d="m 35.25 18.06 c -0.563 0.055 -2.895 0.574 -3.676 0.742 c -0.84 0.227 -8.512 6.152 -9.02 7.605 c -0.113 0.504 -0.168 1.277 -0.168 2.01 l -0.055 1.176 c 0 0.84 0.23 2.191 0.344 2.918 c 0.504 0.113 4.152 0.016 4.824 0.129 l -0.082 1.504 c -0.656 -0.047 -5.289 -0.035 -7.938 -0.035 c -1.344 0 -5.664 0.148 -6.992 0.105 l 0.25 -1.43 c 0.73 -0.059 3.742 0.129 4.406 -0.57 c 0.328 -0.348 0.223 -0.719 0.223 -2.734 l 0 -0.949 c 0 -0.449 0 -1.289 -0.113 -2.074 c -0.277 -0.84 -7.04 -9.273 -8.77 -10.617 c -0.504 -0.168 -3.66 -0.484 -4.445 -0.652 l -0.039 -1.289 c 0.391 -0.195 3.902 0.047 7.309 -0.078 c 2.242 -0.082 7.352 0 7.98 0.074 l -0.16 1.137 c -0.672 0.168 -3.906 0.23 -4.746 0.453 c 2.184 3.246 5.633 7.43 6.754 9.05 c 0.617 -0.895 6.03 -4.617 6.195 -5.906 c -0.84 -0.168 -3.621 -0.566 -4.066 -0.566 l -0.266 -1.469 c 0.762 -0.117 4.77 0 6.762 0 c 1.719 0 5.395 0 6.438 0.086 l -0.953 1.383" style="fill:#871fa2;fill-opacity:1;stroke:none;fill-rule:nonzero"/>
  <path d="m 38.906 33.05 l -1.297 -0.109 l -0.016 -2.816 l 1.645 0.207 l 1.477 0.066 l -0.41 2.758 l -1.395 -0.105 m 1.672 -4.969 l -2.426 -0.234 c 0.254 -1.227 0.035 -10.637 0.016 -11.641 l -0.125 -1.977 c 0.676 0.133 0.574 0.063 3.422 0.359 c 1.734 0.184 1.961 0.262 2.531 0.285 l -0.746 2.344 c -0.633 1.875 -2.477 10.234 -2.672 10.863 m 0 0" style="fill:#871fa2;fill-opacity:1;stroke:none;fill-rule:nonzero"/>
 </g>
</svg>
